X: 64
T: The HIGHLAND WATCH
%R: strathspey
B: Jean White "100 Popular Hornpipes, Reels, Jigs and Country Dances", Boston 1880 p.28
F: http://www.loc.gov/resource/sm1880.09124.0#seq-1
Z: 2014 John Chambers <jc:trillian.mit.edu>
M: C|
L: 1/16
K: Em
% - - - - - - - - - - - - - - - - - - - - - - - - - - - - -
B2 |\
GE3E3F G3EE3c | GE3E3B, D6 D>B |\
GE3E3F G3EE3F | G3AB3G E6 F2 |
G3AB3A B3AG3A | B3AG3B, D4 D2GF |\
EG3G3A B3AG3e | dB3A3F E4 E2 :|
|: ef |\
ge3e3f g3ee3b | g3e dcBA d4 d2ef |\
ge3e3f g3e e2Bd | e3B^d3F E4 E3F |
G3AB3d B3AG3A | B3AG3B, D4 D2GF |\
E3FG3A B3AG3e | d3BA3F E4 E2 H:|
% - - - - - - - - - - - - - - - - - - - - - - - - - - - - -

%%sep 1 1 500
%%sep 1 1 500
